X: 2975
T:Gan Aimn (from James Kelly)
M:6/8
L:1/8
Q:240
R:jig
K:DMaj
E|:FED EFG|ABA GFE|FED EFG|AdA BAG|
!EFD EFG|Adf ecA|BAG FAF|1GEC D2E:|2GEC D2D|
!:~E3 EDC|EFE EFG|~E3 EDC|DFE DCD|
!~E3 EDC|EFE EFG|~F3 GEC|1DFE DCD:|2DFE DFA|
!:dD cD BD|AD GD FD|EDC A,B,C|DEF ABc|
!dD cD BD|AD GD FD|EDC A,B,C|1DFE DFA:|2DFE D2E||
